specter.svg

<svg height="128pt" viewBox="0 0 128 128" width="128pt" xmlns="http://www.w3.org/2000/svg"><path d="m45.95 18.84c10.2-4.31 22-6.6 32.71-2.66 8.91 2.11 16.05 8.84 20.56 16.58 4.45 7.47 4.93 16.6 3.52 25-1.75 8.91-5.58 17.22-9.72 25.25-1.57 3.53-3.51 7.53-2.31 11.44 1.5 3.77 6.1 2.89 9.27 3.7 2.51.65 3.22 4.5 1.14 6.02-3.21 3.2-8.08 3.11-12.18 4.28-16.55 3.66-35.4 2.55-49.23-8.17-10.71-7.68-17.36-20.2-18.54-33.25-2.55 2.04-4.63 5.38-8.21 5.54-3.55.42-6.55-3.15-6.6-6.52-1.62-9.68 6.86-19.55 16.74-19.26 3.17-12.07 11.57-22.53 22.85-27.95m-12.23 14.97c-3.49 4.51-5.61 9.86-7.33 15.25.65 1.35 1.3 2.71 1.96 4.05-3.9-3.01-9.9-2.66-13.5.66-4.08 3.51-6.59 10.69-2.11 14.82 3.26-2.37 6.32-7.13 10.99-5.29 3.05.84 2.11 4.42 2.5 6.77 1.06 11.53 8.07 21.8 17.66 28.04 10.39 7.45 23.77 9.51 36.23 7.72 5.04-.82 10.36-.99 14.97-3.43-2.51-1.17-5.45-1.96-7.04-4.42-2.91-3.57-1.87-8.58-.47-12.55 2.95-7.02 6.09-13.96 8.81-21.07 5.26-11.04 3.92-25.23-4.13-34.6-6.64-8.41-17.79-12.64-28.35-11.86-11.62 1.01-22.94 6.68-30.19 15.91z" fill="#7fa1a7"/><path d="m61.7 84.31c-4.96-9.64 4.69-22.93 15.43-21.03 2.58.06 4.81 2.19 4.78 4.81-2.54-.97-5.24-1.98-7.99-1.27-5.77 1.02-9.27 6.77-10.22 12.16-.32 2.01.42 5.51 3.15 4.89 4.15-1.63 6.08-7.47 11.15-7.15 2.59-.57 3.08 2.3 3.92 4.01-1.03-.27-3.08-.82-4.1-1.09-4.67 1.38-6.49 7.58-11.75 7.33-1.97.37-3.53-1.05-4.37-2.66z" fill="#7fa1a7"/><path d="m33.72 33.81c7.25-9.23 18.57-14.9 30.19-15.91 10.56-.78 21.71 3.45 28.35 11.86 8.05 9.37 9.39 23.56 4.13 34.6-2.72 7.11-5.86 14.05-8.81 21.07-1.4 3.97-2.44 8.98.47 12.55 1.59 2.46 4.53 3.25 7.04 4.42-4.61 2.44-9.93 2.61-14.97 3.43-12.46 1.79-25.84-.27-36.23-7.72-9.59-6.24-16.6-16.51-17.66-28.04-.39-2.35.55-5.93-2.5-6.77-4.67-1.84-7.73 2.92-10.99 5.29-4.48-4.13-1.97-11.31 2.11-14.82 3.6-3.32 9.6-3.67 13.5-.66-.66-1.34-1.31-2.7-1.96-4.05 1.72-5.39 3.84-10.74 7.33-15.25m7.98 4.49c2.73 1.07 5.64 1.93 7.58 4.3.07-.08.21-.23.29-.31.42-.47 1.26-1.43 1.68-1.91 3.18 2.05 5.62 4.96 8.07 7.79-2.94.86-5.84.07-8.3-1.61-1.56 1.2-3.02 2.52-4.46 3.87-.69-.96-1.3-1.96-1.93-2.95-.65-.24-1.96-.7-2.61-.93-1.89 1.26-3.71 3.01-3.59 5.49.04 5.39 2.56 11.37 7.77 13.63 5.39 2.08 11.52.68 16.41-2.08 2.48-1.42 4.09-5.02 2.35-7.59-1.52-2.33-4.64-1.77-7.01-1.76-3.5.32-7.37.17-10.14-2.3 1.07-1.12 2.14-2.24 3.21-3.36 2.91 2.78 7.02 3.49 10.74 1.98 1.66 1.54 3.59 5.08 6.05 2.53-1.63-1.73-3.03-3.65-4.34-5.63 3.57.43 6.58 2.32 9.56 4.17 4.77-.37 6.39-6.82 3.56-10.15-2.79-3.19-7.96-2.92-11.32-.82-1.32-3.91-3.98-7.2-7.64-9.15 2.72 3.08 5.12 6.6 5.28 10.86-1.14.86-1.6 2.28-2.3 3.47-2.47-2.19-4.7-4.64-7.19-6.82 1.23-1.16 2.46-2.31 3.68-3.47-1.56-.27-3.12-.53-4.68-.78.02-2.95-2.12-6.3-5.36-6.13-4.13.59-7.78 5.83-5.36 9.66m20 46.01c.84 1.61 2.4 3.03 4.37 2.66 5.26.25 7.08-5.95 11.75-7.33 1.02.27 3.07.82 4.1 1.09-.84-1.71-1.33-4.58-3.92-4.01-5.07-.32-7 5.52-11.15 7.15-2.73.62-3.47-2.88-3.15-4.89.95-5.39 4.45-11.14 10.22-12.16 2.75-.71 5.45.3 7.99 1.27.03-2.62-2.2-4.75-4.78-4.81-10.74-1.9-20.39 11.39-15.43 21.03z" fill="#c00"/><g fill="#2f2f2f"><path d="m41.7 38.3c-2.42-3.83 1.23-9.07 5.36-9.66 3.24-.17 5.38 3.18 5.36 6.13-.28 1.89-.63 3.77-1.17 5.61-.42.48-1.26 1.44-1.68 1.91l-.29.31c-1.94-2.37-4.85-3.23-7.58-4.3z"/><path d="m65.27 40.66c3.36-2.1 8.53-2.37 11.32.82 2.83 3.33 1.21 9.78-3.56 10.15-2.98-1.85-5.99-3.74-9.56-4.17-.97-.52-1.93-1.05-2.86-1.62.7-1.19 1.16-2.61 2.3-3.47.59-.43 1.77-1.28 2.36-1.71z"/><path d="m38.43 52.04c-.12-2.48 1.7-4.23 3.59-5.49.65.23 1.96.69 2.61.93.63.99 1.24 1.99 1.93 2.95.4.52.82 1.02 1.25 1.51 2.77 2.47 6.64 2.62 10.14 2.3 2.37-.01 5.49-.57 7.01 1.76 1.74 2.57.13 6.17-2.35 7.59-4.89 2.76-11.02 4.16-16.41 2.08-5.21-2.26-7.73-8.24-7.77-13.63z"/></g><g fill="#fdd400"><path d="m57.63 31.51c3.66 1.95 6.32 5.24 7.64 9.15-.59.43-1.77 1.28-2.36 1.71-.16-4.26-2.56-7.78-5.28-10.86z"/><path d="m52.42 34.77c1.56.25 3.12.51 4.68.78-1.22 1.16-2.45 2.31-3.68 3.47 2.49 2.18 4.72 4.63 7.19 6.82.93.57 1.89 1.1 2.86 1.62 1.31 1.98 2.71 3.9 4.34 5.63-2.46 2.55-4.39-.99-6.05-2.53-3.72 1.51-7.83.8-10.74-1.98-1.07 1.12-2.14 2.24-3.21 3.36-.43-.49-.85-.99-1.25-1.51 1.44-1.35 2.9-2.67 4.46-3.87 2.46 1.68 5.36 2.47 8.3 1.61-2.45-2.83-4.89-5.74-8.07-7.79.54-1.84.89-3.72 1.17-5.61z"/><path d="m49.28 42.6.29-.31c-.08.08-.22.23-.29.31z"/></g></svg>

<?xml version="1.0" encoding="UTF-8" standalone="no"?>
<!DOCTYPE svg PUBLIC "-//W3C//DTD SVG 1.1//EN" "http://www.w3.org/Graphics/SVG/1.1/DTD/svg11.dtd">
<svg width="100%" height="100%" viewBox="0 0 98 97" version="1.1" xmlns="http://www.w3.org/2000/svg" xmlns:xlink="http://www.w3.org/1999/xlink" xml:space="preserve" xmlns:serif="http://www.serif.com/" style="fill-rule:evenodd;clip-rule:evenodd;stroke-linejoin:round;stroke-miterlimit:2;">
    <g transform="matrix(1,0,0,1,-6.16038,-14.1506)">
        <path d="M45.95,18.84C56.15,14.53 67.95,12.24 78.66,16.18C87.57,18.29 94.71,25.02 99.22,32.76C103.67,40.23 104.15,49.36 102.74,57.76C100.99,66.67 97.16,74.98 93.02,83.01C91.45,86.54 89.51,90.54 90.71,94.45C92.21,98.22 96.81,97.34 99.98,98.15C102.49,98.8 103.2,102.65 101.12,104.17C97.91,107.37 93.04,107.28 88.94,108.45C72.39,112.11 53.54,111 39.71,100.28C29,92.6 22.35,80.08 21.17,67.03C18.62,69.07 16.54,72.41 12.96,72.57C9.41,72.99 6.41,69.42 6.36,66.05C4.74,56.37 13.22,46.5 23.1,46.79C26.27,34.72 34.67,24.26 45.95,18.84M33.72,33.81C30.23,38.32 28.11,43.67 26.39,49.06C27.04,50.41 27.69,51.77 28.35,53.11C24.45,50.1 18.45,50.45 14.85,53.77C10.77,57.28 8.26,64.46 12.74,68.59C16,66.22 19.06,61.46 23.73,63.3C26.78,64.14 25.84,67.72 26.23,70.07C27.29,81.6 34.3,91.87 43.89,98.11C54.28,105.56 67.66,107.62 80.12,105.83C85.16,105.01 90.48,104.84 95.09,102.4C92.58,101.23 89.64,100.44 88.05,97.98C85.14,94.41 86.18,89.4 87.58,85.43C90.53,78.41 93.67,71.47 96.39,64.36C101.65,53.32 100.31,39.13 92.26,29.76C85.62,21.35 74.47,17.12 63.91,17.9C52.29,18.91 40.97,24.58 33.72,33.81Z" style="fill:rgb(127,161,167);fill-rule:nonzero;"/>
        <path d="M61.7,84.31C56.74,74.67 66.39,61.38 77.13,63.28C79.71,63.34 81.94,65.47 81.91,68.09C79.37,67.12 76.67,66.11 73.92,66.82C68.15,67.84 64.65,73.59 63.7,78.98C63.38,80.99 64.12,84.49 66.85,83.87C71,82.24 72.93,76.4 78,76.72C80.59,76.15 81.08,79.02 81.92,80.73C80.89,80.46 78.84,79.91 77.82,79.64C73.15,81.02 71.33,87.22 66.07,86.97C64.1,87.34 62.54,85.92 61.7,84.31Z" style="fill:rgb(127,161,167);fill-rule:nonzero;"/>
        <path d="M33.72,33.81C40.97,24.58 52.29,18.91 63.91,17.9C74.47,17.12 85.62,21.35 92.26,29.76C100.31,39.13 101.65,53.32 96.39,64.36C93.67,71.47 90.53,78.41 87.58,85.43C86.18,89.4 85.14,94.41 88.05,97.98C89.64,100.44 92.58,101.23 95.09,102.4C90.48,104.84 85.16,105.01 80.12,105.83C67.66,107.62 54.28,105.56 43.89,98.11C34.3,91.87 27.29,81.6 26.23,70.07C25.84,67.72 26.78,64.14 23.73,63.3C19.06,61.46 16,66.22 12.74,68.59C8.26,64.46 10.77,57.28 14.85,53.77C18.45,50.45 24.45,50.1 28.35,53.11C27.69,51.77 27.04,50.41 26.39,49.06C28.11,43.67 30.23,38.32 33.72,33.81M41.7,38.3C44.43,39.37 47.34,40.23 49.28,42.6C49.35,42.52 49.49,42.37 49.57,42.29C49.99,41.82 50.83,40.86 51.25,40.38C54.43,42.43 56.87,45.34 59.32,48.17C56.38,49.03 53.48,48.24 51.02,46.56C49.46,47.76 48,49.08 46.56,50.43C45.87,49.47 45.26,48.47 44.63,47.48C43.98,47.24 42.67,46.78 42.02,46.55C40.13,47.81 38.31,49.56 38.43,52.04C38.47,57.43 40.99,63.41 46.2,65.67C51.59,67.75 57.72,66.35 62.61,63.59C65.09,62.17 66.7,58.57 64.96,56C63.44,53.67 60.32,54.23 57.95,54.24C54.45,54.56 50.58,54.41 47.81,51.94C48.88,50.82 49.95,49.7 51.02,48.58C53.93,51.36 58.04,52.07 61.76,50.56C63.42,52.1 65.35,55.64 67.81,53.09C66.18,51.36 64.78,49.44 63.47,47.46C67.04,47.89 70.05,49.78 73.03,51.63C77.8,51.26 79.42,44.81 76.59,41.48C73.8,38.29 68.63,38.56 65.27,40.66C63.95,36.75 61.29,33.46 57.63,31.51C60.35,34.59 62.75,38.11 62.91,42.37C61.77,43.23 61.31,44.65 60.61,45.84C58.14,43.65 55.91,41.2 53.42,39.02C54.65,37.86 55.88,36.71 57.1,35.55C55.54,35.28 53.98,35.02 52.42,34.77C52.44,31.82 50.3,28.47 47.06,28.64C42.93,29.23 39.28,34.47 41.7,38.3M61.7,84.31C62.54,85.92 64.1,87.34 66.07,86.97C71.33,87.22 73.15,81.02 77.82,79.64C78.84,79.91 80.89,80.46 81.92,80.73C81.08,79.02 80.59,76.15 78,76.72C72.93,76.4 71,82.24 66.85,83.87C64.12,84.49 63.38,80.99 63.7,78.98C64.65,73.59 68.15,67.84 73.92,66.82C76.67,66.11 79.37,67.12 81.91,68.09C81.94,65.47 79.71,63.34 77.13,63.28C66.39,61.38 56.74,74.67 61.7,84.31Z" style="fill:rgb(204,0,0);fill-rule:nonzero;"/>
        <path d="M41.7,38.3C39.28,34.47 42.93,29.23 47.06,28.64C50.3,28.47 52.44,31.82 52.42,34.77C52.14,36.66 51.79,38.54 51.25,40.38C50.83,40.86 49.99,41.82 49.57,42.29L49.28,42.6C47.34,40.23 44.43,39.37 41.7,38.3Z" style="fill:rgb(47,47,47);fill-rule:nonzero;"/>
        <path d="M65.27,40.66C68.63,38.56 73.8,38.29 76.59,41.48C79.42,44.81 77.8,51.26 73.03,51.63C70.05,49.78 67.04,47.89 63.47,47.46C62.5,46.94 61.54,46.41 60.61,45.84C61.31,44.65 61.77,43.23 62.91,42.37C63.5,41.94 64.68,41.09 65.27,40.66Z" style="fill:rgb(47,47,47);fill-rule:nonzero;"/>
        <path d="M38.43,52.04C38.31,49.56 40.13,47.81 42.02,46.55C42.67,46.78 43.98,47.24 44.63,47.48C45.26,48.47 45.87,49.47 46.56,50.43C46.96,50.95 47.38,51.45 47.81,51.94C50.58,54.41 54.45,54.56 57.95,54.24C60.32,54.23 63.44,53.67 64.96,56C66.7,58.57 65.09,62.17 62.61,63.59C57.72,66.35 51.59,67.75 46.2,65.67C40.99,63.41 38.47,57.43 38.43,52.04Z" style="fill:rgb(47,47,47);fill-rule:nonzero;"/>
        <path d="M57.63,31.51C61.29,33.46 63.95,36.75 65.27,40.66C64.68,41.09 63.5,41.94 62.91,42.37C62.75,38.11 60.35,34.59 57.63,31.51Z" style="fill:rgb(253,212,0);fill-rule:nonzero;"/>
        <path d="M52.42,34.77C53.98,35.02 55.54,35.28 57.1,35.55C55.88,36.71 54.65,37.86 53.42,39.02C55.91,41.2 58.14,43.65 60.61,45.84C61.54,46.41 62.5,46.94 63.47,47.46C64.78,49.44 66.18,51.36 67.81,53.09C65.35,55.64 63.42,52.1 61.76,50.56C58.04,52.07 53.93,51.36 51.02,48.58C49.95,49.7 48.88,50.82 47.81,51.94C47.38,51.45 46.96,50.95 46.56,50.43C48,49.08 49.46,47.76 51.02,46.56C53.48,48.24 56.38,49.03 59.32,48.17C56.87,45.34 54.43,42.43 51.25,40.38C51.79,38.54 52.14,36.66 52.42,34.77Z" style="fill:rgb(253,212,0);fill-rule:nonzero;"/>
        <path d="M49.28,42.6L49.57,42.29C49.49,42.37 49.35,42.52 49.28,42.6Z" style="fill:rgb(253,212,0);fill-rule:nonzero;"/>
    </g>
</svg>
